modules/hawcons-filled/icons/icon-56-compass-south.svg

<?xml version="1.0" encoding="UTF-8" standalone="no"?>
<svg width="32px" height="32px" viewBox="0 0 32 32" version="1.1" xmlns="http://www.w3.org/2000/svg" xmlns:xlink="http://www.w3.org/1999/xlink" xmlns:sketch="http://www.bohemiancoding.com/sketch/ns">
    <!-- Generator: Sketch 3.0.3 (7891) - http://www.bohemiancoding.com/sketch -->
    <title>icon 56 compass south</title>
    <desc>Created with Sketch.</desc>
    <defs></defs>
    <g id="Page-1" stroke="none" stroke-width="1" fill="none" fill-rule="evenodd" sketch:type="MSPage">
        <g id="icon-56-compass-south" sketch:type="MSArtboardGroup" fill="#929292">
            <path d="M3,16 C3,23.1797021 8.8202979,29 16,29 C23.1797021,29 29,23.1797021 29,16 C29,8.8202979 23.1797021,3 16,3 C8.8202979,3 3,8.8202979 3,16 L3,16 Z M4,16 C4,22.6274173 9.37258267,28 16,28 C22.6274173,28 28,22.6274173 28,16 C28,9.37258267 22.6274173,4 16,4 C9.37258267,4 4,9.37258267 4,16 L4,16 Z M5,16 C5,22.0751325 9.92486745,27 16,27 C22.0751325,27 27,22.0751325 27,16 C27,9.92486745 22.0751325,5 16,5 C9.92486745,5 5,9.92486745 5,16 L5,16 Z M13,16 C13,14.3431458 14.3465171,13 16,13 C17.6568542,13 19,14.3368622 19,16 C19,18 16,25 16,25 C16,25 13,18 13,16 L13,16 Z M14,16 C14,17.1045696 14.8954304,18 16,18 C17.1045696,18 18,17.1045696 18,16 C18,14.8954304 17.1045696,14 16,14 C14.8954304,14 14,14.8954304 14,16 L14,16 Z" id="compass-south" sketch:type="MSShapeGroup"></path>
        </g>
    </g>
</svg>

<svg width="32" height="32" xmlns="http://www.w3.org/2000/svg"><path d="M3 16c0 7.18 5.82 13 13 13s13-5.82 13-13S23.18 3 16 3 3 8.82 3 16zm1 0c0 6.627 5.373 12 12 12s12-5.373 12-12S22.627 4 16 4 4 9.373 4 16zm1 0c0 6.075 4.925 11 11 11s11-4.925 11-11S22.075 5 16 5 5 9.925 5 16zm8 0c0-1.657 1.347-3 3-3 1.657 0 3 1.337 3 3 0 2-3 9-3 9s-3-7-3-9zm1 0a2 2 0 1 0 4 0 2 2 0 0 0-4 0z" fill="#929292" fill-rule="evenodd"/></svg>
